X: 38267
T: St. Andrew's Flight
R: reel
M: 4/4
K: Edorian
|:B3B B2AF|DEED E2FA|B3 A Bd(e2|e)ede fedc|
B3B B2AF|DEED E2FA|BABd ABAF|1 DEED ^A4:|2 DEED E3B||
|:eBB/B/B efge|fBB/B/B fBaB|bcc/c/c acc/c/c|gcbc acgc|
eBB/B/B efge|fBB/B/B fBaB|bcc/c/c acc/c/c|1 fgfg fgfg:|2 fgfe dBAF||

